X: 39
T: Barton's Maggot
B: John Walsh "Caledonian Country Dances" 1748
S: 2: CCD2  http://petrucci.mus.auth.gr/imglnks/usimg/5/50/IMSLP98359-PMLP202128-walsh_caledonian_country_dance_vol2.1.pdf p:32 #292
S: 4: ACMV  http://archive.org/details/acompositemusicv01rugg p.4:32 #292
Z: 2013 John Chambers <jc:trillian.mit.edu>
M: C|
L: 1/8
K: G
% - - - - - - - - - - - - - - - - - - - - - - - - -
V: 1
|: (GB) (dg) (bg) (af) | (ge) (dg) (dB) A2 | (GB) (dg) (bg) (af) | (ge) d>e (BG) G2 :|
|: B>d .G.G B>d .G.G | c>e dB cA A2 | (GB) (dg) (bg) (af) | (ge) d>e (BG) G2 :|
% - - - - - - - - - - - - - - - - - - - - - - - - -
V: 2 clef=bass middle=d
|: g2g2 g2g2 | g2g2 g2g2 | g2g2 g2g2 | g2g2 g2g2 :|
|: g2g2 g2g2 | g2g2 g2g2 | g2g2 g2g2 | g2g2 g2g2 :|
% - - - - - - - - Dance description - - - - - - - -
%%begintext align
%% The 1st Man Right hands with the 2d Wo. .|
%% the 1st Wo. the same with the 2d Man :|
%% Hands across all round .|
%% the 1st Cu. cast of and turn :|
%%endtext

%%sep 1 1 500
%%sep 1 1 500
